X:1
T:Title
%%score { ( 1 3 ) | 2 }
L:1/8
Q:1/4=94
M:4/4
K:Ab
V:1 treble nm="Grand Piano"
V:3 treble 
V:2 bass 
V:1
 [Ec]3 [CE] [CF] [CF]2 [CE] | D B2 =A B4 | B3 D E E2 D | C [CA]2 [CG] [CA]4 | %4
w: Walter~E.~Vom~Bruch * * * *||||
 [Ec] [Ec]2 [EB] [EA] [Ec]2 [EA] | [DB] [FB]2 [Fc] [Fd] [EFc]2 [DFB] | e6 z2 | c c2 B [CA]2 z2 |] %8
w: ||||
V:2
 [A,,A,]3 [A,,A,] [A,,A,] [A,,A,]2 [A,,A,] | [E,G,B,] [E,G,D]2 [E,_G,C] [E,=G,D]4 | %2
 [E,G,D]3 [E,G,B,] [E,G,C] [E,G,C]2 [E,G,B,] | [A,,A,] [A,,E,]2 [A,,E,] [A,,E,]4 | %4
 [A,,A,] [A,,A,]2 [B,,G,] [C,_G,] [A,,G,]2 [C,G,] | [D,F,] [D,B,]2 [C,=A,] [B,,B,] B,,2 B,, | %6
 [E,CE] [E,C]2 [C,A,] A,,A,, C,2 | [E,G,E] [E,G,E]2 [E,G,D] [A,,E,]2 z2 |] %8
V:3
 x8 | x8 | x8 | x8 | x8 | x8 | z A2 F [CE][CE] [A,EA]2 | x8 |] %8

